flaticon/army-badges/aeroplane-6.svg

<svg xmlns="http://www.w3.org/2000/svg" width="32" height="32" viewBox="0 0 24 24">
    <path d="M 23.042969 12.238281 C 23.601562 12.199219 24 11.761719 24 11.242188 C 24 10.640625 23.519531 10.203125 22.960938 10.203125 L 13.179688 10.203125 L 13.179688 7.808594 L 15.574219 7.808594 C 16.253906 7.808594 16.773438 7.289062 16.773438 6.609375 C 16.773438 5.929688 16.253906 5.410156 15.574219 5.410156 L 13.179688 5.410156 L 13.179688 4.652344 C 13.179688 4.574219 13.136719 4.492188 13.097656 4.414062 C 12.859375 4.054688 12.417969 3.8125 11.980469 3.8125 C 11.539062 3.8125 11.101562 4.054688 10.863281 4.414062 C 10.820312 4.492188 10.78125 4.574219 10.78125 4.652344 L 10.78125 5.410156 L 8.386719 5.410156 C 7.707031 5.410156 7.1875 5.929688 7.1875 6.609375 C 7.1875 7.289062 7.707031 7.808594 8.386719 7.808594 L 10.78125 7.808594 L 10.78125 10.203125 L 1.039062 10.203125 C 0.4375 10.203125 0 10.683594 0 11.242188 C 0 11.761719 0.398438 12.199219 0.957031 12.238281 L 1.996094 12.328125 L 1.996094 12.648438 C 1.308594 12.828125 0.796875 13.457031 0.796875 14.195312 C 0.796875 15.074219 1.515625 15.792969 2.394531 15.792969 C 3.273438 15.792969 3.992188 15.074219 3.992188 14.195312 C 3.992188 13.457031 3.480469 12.828125 2.796875 12.648438 L 2.796875 12.394531 L 5.589844 12.628906 L 5.589844 13.449219 C 4.902344 13.628906 4.394531 14.253906 4.394531 14.996094 C 4.394531 15.875 5.113281 16.59375 5.988281 16.59375 C 6.867188 16.59375 7.585938 15.875 7.585938 14.996094 C 7.585938 14.253906 7.078125 13.628906 6.390625 13.449219 L 6.390625 12.695312 L 9.378906 12.949219 C 8.515625 13.8125 7.988281 15.039062 7.988281 16.191406 C 7.988281 18.390625 9.785156 20.1875 11.980469 20.1875 C 14.175781 20.1875 15.972656 18.390625 15.972656 16.191406 C 15.972656 15.050781 15.453125 13.835938 14.609375 12.976562 L 17.570312 12.714844 L 17.570312 13.449219 C 16.882812 13.628906 16.371094 14.253906 16.371094 14.996094 C 16.371094 15.875 17.089844 16.59375 17.96875 16.59375 C 18.847656 16.59375 19.566406 15.875 19.566406 14.996094 C 19.566406 14.253906 19.054688 13.628906 18.371094 13.449219 L 18.371094 12.648438 L 21.164062 12.402344 L 21.164062 12.648438 C 20.476562 12.828125 19.964844 13.457031 19.964844 14.195312 C 19.964844 15.074219 20.683594 15.792969 21.5625 15.792969 C 22.441406 15.792969 23.160156 15.074219 23.160156 14.195312 C 23.160156 13.457031 22.648438 12.828125 21.964844 12.648438 L 21.964844 12.332031 Z M 3.195312 14.195312 C 3.195312 14.636719 2.835938 14.996094 2.394531 14.996094 C 1.957031 14.996094 1.597656 14.636719 1.597656 14.195312 C 1.597656 13.757812 1.957031 13.398438 2.394531 13.398438 C 2.835938 13.398438 3.195312 13.757812 3.195312 14.195312 Z M 6.789062 14.996094 C 6.789062 15.433594 6.429688 15.792969 5.988281 15.792969 C 5.550781 15.792969 5.191406 15.433594 5.191406 14.996094 C 5.191406 14.554688 5.550781 14.195312 5.988281 14.195312 C 6.429688 14.195312 6.789062 14.554688 6.789062 14.996094 Z M 18.769531 14.996094 C 18.769531 15.433594 18.410156 15.792969 17.96875 15.792969 C 17.53125 15.792969 17.171875 15.433594 17.171875 14.996094 C 17.171875 14.554688 17.53125 14.195312 17.96875 14.195312 C 18.410156 14.195312 18.769531 14.554688 18.769531 14.996094 Z M 22.363281 14.195312 C 22.363281 14.636719 22.003906 14.996094 21.5625 14.996094 C 21.125 14.996094 20.765625 14.636719 20.765625 14.195312 C 20.765625 13.757812 21.125 13.398438 21.5625 13.398438 C 22.003906 13.398438 22.363281 13.757812 22.363281 14.195312 Z M 15.574219 6.210938 C 15.8125 6.210938 15.972656 6.371094 15.972656 6.609375 C 15.972656 6.847656 15.8125 7.007812 15.574219 7.007812 L 13.179688 7.007812 L 13.179688 6.210938 Z M 8.386719 7.007812 C 8.144531 7.007812 7.988281 6.847656 7.988281 6.609375 C 7.988281 6.371094 8.144531 6.210938 8.386719 6.210938 L 10.78125 6.210938 L 10.78125 7.007812 Z M 11.582031 7.40625 L 11.582031 4.8125 C 11.78125 4.574219 12.179688 4.53125 12.378906 4.8125 L 12.378906 10.203125 L 11.582031 10.203125 Z M 0.796875 11.242188 C 0.796875 11.121094 0.917969 11 1.039062 11 L 22.921875 11 C 23.082031 11 23.160156 11.082031 23.160156 11.203125 C 23.160156 11.320312 23.082031 11.441406 22.960938 11.441406 L 21.582031 11.5625 C 21.578125 11.5625 21.570312 11.5625 21.5625 11.5625 C 21.527344 11.5625 21.492188 11.566406 21.457031 11.574219 L 14.296875 12.199219 L 13.578125 12.199219 C 13.546875 12.183594 13.519531 12.171875 13.492188 12.15625 C 13.03125 11.929688 12.519531 11.800781 11.980469 11.800781 C 11.441406 11.800781 10.929688 11.929688 10.46875 12.15625 C 10.441406 12.171875 10.410156 12.183594 10.382812 12.199219 L 10.023438 12.199219 L 1 11.480469 C 0.878906 11.441406 0.796875 11.359375 0.796875 11.242188 Z M 11.980469 19.386719 C 10.222656 19.386719 8.785156 17.949219 8.785156 16.191406 C 8.785156 14.980469 9.496094 13.640625 10.585938 12.992188 C 10.613281 12.988281 10.644531 12.976562 10.664062 12.957031 C 10.914062 12.8125 11.175781 12.714844 11.441406 12.65625 C 11.609375 12.621094 11.789062 12.601562 11.96875 12.597656 C 12.40625 12.601562 12.839844 12.71875 13.257812 12.957031 C 13.308594 12.984375 13.34375 12.992188 13.378906 12.996094 C 14.464844 13.644531 15.175781 14.980469 15.175781 16.191406 C 15.175781 17.949219 13.738281 19.386719 11.980469 19.386719 Z M 11.980469 19.386719"/>
    <path d="M 12.777344 14.195312 L 11.179688 14.195312 C 10.621094 14.195312 9.902344 14.554688 9.625 15.234375 C 9.503906 15.433594 9.625 15.675781 9.824219 15.753906 C 10.023438 15.875 10.261719 15.753906 10.34375 15.554688 C 10.503906 15.15625 10.941406 14.996094 11.179688 14.996094 L 12.777344 14.996094 C 13.019531 14.996094 13.457031 15.15625 13.617188 15.554688 C 13.65625 15.714844 13.816406 15.792969 13.976562 15.792969 C 14.015625 15.792969 14.097656 15.792969 14.136719 15.753906 C 14.335938 15.675781 14.414062 15.433594 14.335938 15.234375 C 14.054688 14.515625 13.335938 14.195312 12.777344 14.195312 Z M 12.777344 14.195312"/>
</svg>

<svg xmlns="http://www.w3.org/2000/svg" width="32" height="32" viewBox="0 0 24 24">
    <path d="M23.043 12.238c.559-.039.957-.476.957-.996 0-.601-.48-1.039-1.04-1.039h-9.78V7.81h2.394c.68 0 1.2-.52 1.2-1.2 0-.68-.52-1.199-1.2-1.199H13.18v-.758c0-.078-.043-.16-.082-.238a1.383 1.383 0 0 0-1.118-.601c-.44 0-.878.242-1.117.601a.528.528 0 0 0-.082.238v.758H8.387c-.68 0-1.2.52-1.2 1.2 0 .68.52 1.199 1.2 1.199h2.394v2.394H1.04c-.601 0-1.039.48-1.039 1.04 0 .519.398.956.957.995l1.04.09v.32c-.688.18-1.2.809-1.2 1.547 0 .88.719 1.598 1.598 1.598.878 0 1.597-.719 1.597-1.598 0-.738-.512-1.367-1.195-1.547v-.253l2.793.234v.82a1.601 1.601 0 0 0-1.195 1.547c0 .879.718 1.598 1.593 1.598.88 0 1.598-.719 1.598-1.598 0-.742-.508-1.367-1.195-1.547v-.754l2.988.254c-.863.864-1.39 2.09-1.39 3.242 0 2.2 1.796 3.997 3.991 3.997a4.005 4.005 0 0 0 3.993-3.997c0-1.14-.52-2.355-1.364-3.214l2.961-.262v.734c-.687.18-1.199.805-1.199 1.547 0 .879.719 1.598 1.598 1.598.879 0 1.597-.719 1.597-1.598 0-.742-.511-1.367-1.195-1.547v-.8l2.793-.247v.246c-.687.18-1.2.809-1.2 1.547 0 .88.72 1.598 1.599 1.598.878 0 1.597-.719 1.597-1.598 0-.738-.512-1.367-1.195-1.547v-.316zM3.195 14.195c0 .442-.36.801-.8.801a.801.801 0 0 1-.797-.8.8.8 0 0 1 .797-.798c.44 0 .8.36.8.797zm3.594.801c0 .438-.36.797-.8.797a.8.8 0 0 1-.798-.797c0-.441.36-.8.797-.8.442 0 .801.359.801.8zm11.98 0c0 .438-.359.797-.8.797a.8.8 0 0 1-.797-.797c0-.441.36-.8.797-.8.441 0 .8.359.8.8zm3.594-.8c0 .44-.36.8-.8.8a.801.801 0 0 1-.797-.8.8.8 0 0 1 .797-.798c.44 0 .8.36.8.797zM15.574 6.21c.239 0 .399.16.399.398 0 .239-.16.399-.399.399H13.18V6.21zm-7.187.797c-.242 0-.399-.16-.399-.399 0-.238.157-.398.399-.398h2.394v.797zm3.195.398V4.813c.2-.239.598-.282.797 0v5.39h-.797zM.797 11.242A.26.26 0 0 1 1.039 11h21.883c.16 0 .238.082.238.203 0 .117-.078.238-.2.238l-1.378.121h-.02a.485.485 0 0 0-.105.012l-7.16.625h-.719c-.031-.015-.058-.027-.086-.043a3.416 3.416 0 0 0-1.512-.355c-.539 0-1.05.129-1.511.355-.028.016-.059.028-.086.043h-.36L1 11.48c-.121-.039-.203-.12-.203-.238zm11.183 8.145a3.204 3.204 0 0 1-3.195-3.196c0-1.21.711-2.55 1.8-3.199a.143.143 0 0 0 .08-.035c.25-.145.51-.242.776-.3.168-.036.348-.055.528-.06.437.005.87.122 1.289.36.05.027.086.035.12.04 1.087.648 1.798 1.983 1.798 3.194a3.204 3.204 0 0 1-3.196 3.196zm0 0"/>
    <path d="M12.777 14.195H11.18c-.559 0-1.278.36-1.555 1.04-.121.199 0 .44.2.519.198.121.437 0 .519-.2.16-.398.597-.558.836-.558h1.597c.243 0 .68.16.84.559.04.16.2.238.36.238.039 0 .12 0 .16-.04.199-.077.277-.32.199-.519-.281-.718-1-1.039-1.559-1.039zm0 0"/>
</svg>
